svgs/duotone/quote-left.svg

<svg xmlns="http://www.w3.org/2000/svg" viewBox="0 0 512 512"><!-- Font Awesome Pro 5.15.1 by @fontawesome - https://fontawesome.com License - https://fontawesome.com/license (Commercial License) --><defs><style>.fa-secondary{opacity:.4}</style></defs><path d="M464 256h-80v-64a64.06 64.06 0 0 1 64-64h8a23.94 23.94 0 0 0 24-23.88V56a23.94 23.94 0 0 0-23.88-24H448a160 160 0 0 0-160 160v240a48 48 0 0 0 48 48h128a48 48 0 0 0 48-48V304a48 48 0 0 0-48-48z" class="fa-secondary"/><path d="M176 256H96v-64a64.06 64.06 0 0 1 64-64h8a23.94 23.94 0 0 0 24-23.88V56a23.94 23.94 0 0 0-23.88-24H160A160 160 0 0 0 0 192v240a48 48 0 0 0 48 48h128a48 48 0 0 0 48-48V304a48 48 0 0 0-48-48z" class="fa-primary"/></svg>

<svg xmlns="http://www.w3.org/2000/svg" viewBox="0 0 512 512"><!-- Font Awesome Pro 6.0.0-alpha2 by @fontawesome - https://fontawesome.com License - https://fontawesome.com/license (Commercial License) --><defs><style>.fa-secondary{opacity:.4}</style></defs><path d="M464 256H384V192C384 156.75 412.75 128 448 128H456C469.25 128 480 117.25 480 104V56C480 42.75 469.25 32 456 32H448C359.625 32 288 103.625 288 192V432C288 458.5 309.5 480 336 480H464C490.5 480 512 458.5 512 432V304C512 277.5 490.5 256 464 256Z" class="fa-secondary"/><path d="M176 256H96V192C96 156.75 124.75 128 160 128H168C181.25 128 192 117.25 192 104V56C192 42.75 181.25 32 168 32H160C71.625 32 0 103.625 0 192V432C0 458.5 21.5 480 48 480H176C202.5 480 224 458.5 224 432V304C224 277.5 202.5 256 176 256Z" class="fa-primary"/></svg>
